contributed-vectors/agenda.svg

<svg xmlns="http://www.w3.org/2000/svg" xml:space="preserve" style="fill-rule:evenodd;clip-rule:evenodd;stroke-linecap:round;stroke-linejoin:round;stroke-miterlimit:1.5" viewBox="0 0 192 192"><path d="M164.5 21.5c0-5.519-4.481-10-10-10h-133c-5.519 0-10 4.481-10 10v133c0 5.519 4.481 10 10 10h133c5.519 0 10-4.481 10-10v-133Z" style="fill:#ababff" transform="translate(8 8)"/><path d="m70.742 55.765 50.266 34.445v45.059l-18.021-13.963a11.465 11.465 0 0 0-14-.033l-18.245 13.996V55.765Z" style="fill:#fff;stroke:#fff;stroke-width:9.73px"/></svg>

<?xml version="1.0" encoding="UTF-8" standalone="no"?>
<!DOCTYPE svg PUBLIC "-//W3C//DTD SVG 1.1//EN" "http://www.w3.org/Graphics/SVG/1.1/DTD/svg11.dtd">
<svg width="100%" height="100%" viewBox="0 0 192 192" version="1.1" xmlns="http://www.w3.org/2000/svg" xmlns:xlink="http://www.w3.org/1999/xlink" xml:space="preserve" xmlns:serif="http://www.serif.com/" style="fill-rule:evenodd;clip-rule:evenodd;stroke-linecap:round;stroke-linejoin:round;stroke-miterlimit:1.5;">
    <g id="Layer1">
        <g transform="matrix(1,0,0,1,8,8)">
            <path d="M164.5,21.5C164.5,15.981 160.019,11.5 154.5,11.5L21.5,11.5C15.981,11.5 11.5,15.981 11.5,21.5L11.5,154.5C11.5,160.019 15.981,164.5 21.5,164.5L154.5,164.5C160.019,164.5 164.5,160.019 164.5,154.5L164.5,21.5Z" style="fill:rgb(171,171,255);"/>
        </g>
        <path d="M70.742,55.765L121.008,90.21L121.008,135.269C121.008,135.269 110.386,127.039 102.987,121.306C98.87,118.116 93.12,118.103 88.987,121.273C81.513,127.007 70.742,135.269 70.742,135.269L70.742,55.765Z" style="fill:white;stroke:white;stroke-width:9.73px;"/>
    </g>
</svg>
